build/images/fb-icons/checkbox.svg

<svg xmlns="http://www.w3.org/2000/svg" xmlns:xlink="http://www.w3.org/1999/xlink" preserveAspectRatio="xMidYMid" width="22" height="22" viewBox="0 0 22 22">
  <defs>
    <style>
      .cls-1 {
        fill: #e84c3d;
        fill-rule: evenodd;
      }
    </style>
  </defs>
  <path d="M4.000,-0.000 L18.000,-0.000 C20.209,-0.000 22.000,1.791 22.000,4.000 L22.000,18.000 C22.000,20.209 20.209,22.000 18.000,22.000 L4.000,22.000 C1.791,22.000 -0.000,20.209 -0.000,18.000 L-0.000,4.000 C-0.000,1.791 1.791,-0.000 4.000,-0.000 ZM5.000,1.000 L17.000,1.000 C19.209,1.000 21.000,2.791 21.000,5.000 L21.000,17.000 C21.000,19.209 19.209,21.000 17.000,21.000 L5.000,21.000 C2.791,21.000 1.000,19.209 1.000,17.000 L1.000,5.000 C1.000,2.791 2.791,1.000 5.000,1.000 Z" class="cls-1"/>
</svg>

<svg xmlns="http://www.w3.org/2000/svg" preserveAspectRatio="xMidYMid" width="22" height="22" viewBox="0 0 22 22"><defs><style>.cls-1{fill:#e84c3d;fill-rule:evenodd}</style></defs><path d="M4 0h14a4 4 0 0 1 4 4v14a4 4 0 0 1-4 4H4a4 4 0 0 1-4-4V4a4 4 0 0 1 4-4zm1 1h12a4 4 0 0 1 4 4v12a4 4 0 0 1-4 4H5a4 4 0 0 1-4-4V5a4 4 0 0 1 4-4z" class="cls-1"/></svg>
